!!!OTL: ICH KAM VOM WALDE
!!!ARE: Europa, Mitteleuropa, Deutschland
!!!SCT: F0891
!!!YEM: Copyright 1995, estate of Helmut Schaffrath.
**kern
*ICvox
*Ivox
*M6/8
*k[f#c#g#d#]
*E:
{8e
=1
4e
8g#
8.g#
16g#
8a
=2
4b
8cc#
4b}
{8g#
=3
8.g#
16g#
8g#
8.g#
16f#
16e
16f#
=4
4g#
4.r}
{8b
=5
8.b
16b
8a
8.g#
16b
8ee
=6
4.dd#
4cc#}
{8ee
=7
8.dd#
16cc#
8b
8a
8g#
8f#
=8
4g#
8b
8b
8g#}
{8ee
=9
8.dd#
16cc#
8b
8.a
16g#
8f#
=10
4e
4.r}
==
!!!AGN: erzaehlendes Volks - Lied, Ballade, Liebe
!!!ONB: ESAC (Essen Associative Code) Database: FINK
!!!AMT: compound duple
!!!AIN: vox
!!!EED: Helmut Schaffrath
!!!EEV: 1.0
*-
